!!!!SEGMENT: pl-kk--kk-i-3--049_anonim--agnus-dei.krn
!!!cenid: 15xx:703
!!!COM: Anonim
!!!COM-rismID: pe30004985
!!!CDT:
!!!CNT:
!!!OTL: Agnus Dei
!!!PDT:
!!!AGN:
!!!SMS-siglum: PL-Kk
!!!SMS-shelfmark: Kk.I.3
!!!SMS-shelfwork: 049 W
!!!SMS-variant:
!!!SMS-altvar:
!!!NIFC-rismSourceID: 1001145493
!!!NIFC-rismChildID: 1001145493
!!!NIFC-islandoraID: pl-kk:1170
!!!URL-pdf-islandora: https://repozytorium.nifc.pl/islandora/object/pl-kk%3A1170/datastream/PDF/view
!!!URL-scan: https://polish.musicsources.pl/pl/lokalizacje/galeria/rekopisy/5919 @EN{Scan on Polish Music Sources Website} @PL{Skany w portalu Dziedzictwo Muzyki Polskiej w otwartym dostępie}
!!!IIIF:
!!!ONB-nifc: UWAGA: Discantus (s. 135v-136v, skan 0138-0139), Tenor (s. 102r-103r, skan 0274-0275), Bassus (s. 130v-131v, skan 0434-0435)
!!!AIN: 1 bass 1 empty 1 tenor
!!!key: F:lyd
**kern	**text	**kern	**text	**text	**kern	**text
*part3	*part3	*part2	*part2	*part2	*part1	*part1
*staff3	*staff3	*staff2	*staff2	*staff2	*staff1	*staff1
*Ibass	*	*Itenor	*	*	*Iempty	*
*I"[Bassus]	*	*I"[Tenor]	*	*	*I"[Discantus]	*
*I'B	*	*I'T	*	*	*I'S	*
*ICvox	*	*ICvox	*	*	*ICvox	*
*clefF4	*	*clefC4	*	*	*clefC3	*
*k[b-]	*	*k[b-]	*	*	*k[b-]	*
*F:lyd	*	*F:lyd	*	*	*F:lyd	*
*M2/1	*	*M2/1	*	*	*M2/1	*
*met(C|)	*	*met(C|)	*	*	*met(C|)	*
*lig	*	*lig	*	*	*	*
=1-	=1-	=1-	=1-	=1-	=1-	=1-
*2\right	*	*2\right	*	*	*2\right	*
*4\right	*	*4\right	*	*	*4\right	*
1C	A-	1c	A-	.	0g	A-
1G	.	1d	.	.	.	.
*Xlig	*	*Xlig	*	*	*	*
=2-	=2-	=2-	=2-	=2-	=2-	=2-
*	*	*lig	*	*	*	*
2A\	.	1c	.	.	2e\	.
2.F\	-gnvs	.	.	.	1f	.
.	.	1A	.	.	.	.
4G\	.	.	.	.	.	.
2A\	.	.	.	.	2e\	.
*	*	*Xlig	*	*	*	*
=3-	=3-	=3-	=3-	=3-	=3-	=3-
*	*	*lig	*	*	*	*
2D/	.	1F	.	.	2d/	.
2A\	.	.	.	.	2c/	.
1G	.	1G	.	.	2B-/	.
.	.	.	.	.	4G/	.
.	.	.	.	.	4B-/	.
*	*	*Xlig	*	*	*	*
=4-	=4-	=4-	=4-	=4-	=4-	=4-
2.F/	.	1A	.	.	4A/	.
.	.	.	.	.	4G/	.
.	.	.	.	.	1c	.
4E/	.	.	.	.	.	.
*custos:D	*	*	*	*	*	*
2C/	.	2G/	.	.	.	.
*	*	*	*	*	*custos:c	*
!LO:LB:g=original	!	!	!	!	!	!
2D/	.	2F/	.	.	2B-/	-gnus
!	!	!	!	!	!LO:LB:g=original	!
=5-	=5-	=5-	=5-	=5-	=5-	=5-
1C	.	1G	-gnus	.	2.c/	de-
.	.	.	.	.	4B-/	.
2D/	.	2F/	.	.	4A/	.
.	.	.	.	.	4G/	.
4BB-/	de-	1B-\	de-	.	1d\	.
4C/	-i	.	.	.	.	.
=6-	=6-	=6-	=6-	=6-	=6-	=6-
4D/	.	.	.	.	.	.
4E/	.	.	.	.	.	.
2F\	.	2A/	.	.	2c/	.
*	*	*custos:A	*	*	*	*
2G\	.	2G/	.	.	2B-/	.
!	!	!LO:PB:g=original	!	!	!	!
1C/	.	2.A/	.	.	2.c/	.
=7-	=7-	=7-	=7-	=7-	=7-	=7-
.	.	.	.	.	.	.
.	.	4G/	.	.	4B-/	.
2D/	.	1F	.	.	2A/	.
2BB-/	.	.	.	.	1G	-i
2C/	.	2E/	.	.	.	.
=8-	=8-	=8-	=8-	=8-	=8-	=8-
2FF/	.	1F	-i	.	2F/	.
2.F\	qvi	.	.	.	2F/	.
*	*	*lig	*	*	*	*
.	.	1F	qui	.	2.A/	qui
*custos:A	*	*	*	*	*	*
4G\	.	.	.	.	.	.
!LO:LB:g=original	!	!	!	!	!	!
1A\	.	.	.	.	.	.
*	*	*	*	*	*custos:c	*
.	.	.	.	.	4B-/	.
!	!	!	!	!	!LO:LB:g=original	!
=9-	=9-	=9-	=9-	=9-	=9-	=9-
.	.	1A	.	.	2c/	.
2D/	.	.	.	.	1d	tol-
*	*	*Xlig	*	*	*	*
*	*	*lig	*	*	*	*
1A	tol-	1c	.	.	.	.
.	.	.	.	.	1c\	-lis
=10-	=10-	=10-	=10-	=10-	=10-	=10-
1.G	-lis	1d	.	.	.	.
.	.	.	.	.	2B-/	.
*	*	*Xlig	*	*	*	*
.	.	1c	.	.	2c/	.
2F/	.	.	.	.	2.f\	.
=11-	=11-	=11-	=11-	=11-	=11-	=11-
*	*	*lig	*	*	*	*
2D/	.	1f	.	.	.	.
.	.	.	.	.	4e/	.
2F/	.	.	.	.	1d	.
1C	.	1e	.	.	.	.
.	.	.	.	.	1c\	.
*	*	*Xlig	*	*	*	*
=12-	=12-	=12-	=12-	=12-	=12-	=12-
*	*	*lig	*	*	*	*
1G	.	1d	.	.	.	.
.	.	.	.	.	2B-/	.
2C/	.	1c	.	.	2c/	.
1c\	.	.	.	.	2A/	.
*	*	*Xlig	*	*	*	*
=13-	=13-	=13-	=13-	=13-	=13-	=13-
*	*	*lig	*	*	*	*
.	.	1d	.	.	1G	.
2B-\	.	.	.	.	.	.
2c\	.	1e	.	.	2r	.
2C/	.	.	.	.	2g\	.
*	*	*Xlig	*	*	*	*
=14-	=14-	=14-	=14-	=14-	=14-	=14-
2D/	.	2d\	.	.	2f\	.
*	*	*custos:B-	*	*	*custos:d	*
2E/	.	1c	.	.	2e\	.
*custos:G	*	*	*	*	*	*
!	!	!LO:LB:g=original	!	!	!LO:LB:g=original	!
2F\	.	.	.	.	1d	.
!LO:LB:g=original	!	!	!	!	!	!
2G\	.	2B-/	tol-	.	.	.
=15-	=15-	=15-	=15-	=15-	=15-	=15-
1A	.	1c	-lis	.	2c/	.
.	.	.	.	.	1f	.
1D	.	1f	pec-	.	.	.
.	.	.	.	.	2d/	pec-
=16-	=16-	=16-	=16-	=16-	=16-	=16-
2r	.	1d	-ca-	.	2.f\	-ca-
2.D/	pec-	.	.	.	.	.
.	.	.	.	.	4e\	-ta
.	.	1f	-ta	.	2d/	.
4E/	-ca-	.	.	.	.	.
2F\	-ta	.	.	.	1c\	.
=17-	=17-	=17-	=17-	=17-	=17-	=17-
*	*	*lig	*	*	*	*
1G	.	1e	mun-	.	.	.
.	.	.	.	.	2B-/	mun-
*	*	*col	*	*	*	*
1F	.	2.f\	.	.	1c	-di
*	*	*Xlig	*	*	*	*
.	.	4e\	.	.	.	.
*	*	*Xcol	*	*	*	*
=18-	=18-	=18-	=18-	=18-	=18-	=18-
2G\	.	2d\	.	.	1r	.
2A\	.	2c\	.	.	.	.
1G	.	1d	-di	.	1g	mi-
=19-	=19-	=19-	=19-	=19-	=19-	=19-
2r	.	1c	mi-	Do	2g\	-ſe-
2.F/	.	.	.	.	2.a\	.
.	.	1f	-se-	.	.	.
4E/	.	.	.	.	4g\	.
4D/	.	.	.	.	4f\	.
*custos:BB-	*	*	*	*	*	*
4C/	.	.	.	.	4e/	.
!LO:LB:g=original	!	!	!	!	!	!
=20-	=20-	=20-	=20-	=20-	=20-	=20-
*	*	*lig	*	*	*	*
1BB-	.	1f	.	.	4d/	.
*	*	*	*	*	*custos:f	*
.	.	.	.	.	4c/	.
!	!	!	!	!	!LO:LB:g=original	!
.	.	.	.	.	1f	.
1C	.	1c	.	.	.	.
.	.	.	.	.	2e\	-re-
*	*	*Xlig	*	*	*	*
=21-	=21-	=21-	=21-	=21-	=21-	=21-
2FF/	.	1A	-re-	no-	1f	-re
2.F\	.	.	.	.	.	.
*	*	*custos:B-	*	*	*	*
.	.	1F	-re	-bis	2r	.
4E/	.	.	.	.	.	.
4D/	.	.	.	.	1f\	no-
4C/	.	.	.	.	.	.
!	!	!LO:LB:g=original	!	!	!	!
=22-	=22-	=22-	=22-	=22-	=22-	=22-
2.BB-/	.	1B-	no-	pa-	.	.
.	.	.	.	.	1d	.
4C/	.	.	.	.	.	.
2D/	.	1A	-bis	.	.	.
1C/	.	.	.	.	1e\	.
=23-	=23-	=23-	=23-	=23-	=23-	=23-
.	.	2G/	.	.	.	.
2.BB-/	.	2.B-/	.	.	4d/	.
.	.	.	.	.	4c/	.
.	.	.	.	.	1d	.
4C/	.	4A/	.	.	.	.
2D/	.	2F/	.	.	.	.
=24-	=24-	=24-	=24-	=24-	=24-	=24-
2C/	.	2G/	.	.	2e\	.
*custos:B-	*	*	*	*	*	*
2AA/	.	2A/	.	.	1f	.
!LO:LB:g=original	!	!	!	!	!	!
2BB-/	.	1G	.	.	.	.
2C/	.	.	.	.	2e\	.
=25-	=25-	=25-	=25-	=25-	=25-	=25-
!	!	!LO:N:vis=0	!	!	!	!
2D/	.	00F;	.	-cem	00f;<	-bis
1BB-	.	.	.	.	.	.
4AA/	.	.	.	.	.	.
4GG/	.	.	.	.	.	.
=26-	=26-	=26-	=26-	=26-	=26-	=26-
*	*	*	*	*	*custos:c	*
!LO:N:vis=00	!	!	!	!	!	!
0FF;	.	.	.	.	.	.
!	!	!	!	!	!LO:LB:g=original	!
=27||-	=27||-	=27||-	=27||-	=27||-	=27||-	=27||-
!LO:CL:ed	!	!	!	!	!	!
*clefF3	*	*	*	*	*	*
2.F/	A-	1f	A-	.	1.c	A-
4G/	-gnus	.	.	.	.	.
*	*	*lig	*	*	*	*
2A/	.	1f	-gnus	.	.	.
2B-\	.	.	.	.	1d\	-gnus
=28-	=28-	=28-	=28-	=28-	=28-	=28-
*custos:C	*	*	*	*	*	*
2c\	.	1e	.	.	.	.
!LO:LB:g=original	!	!	!	!	!	!
2C/	.	.	.	.	1c	.
*	*	*Xlig	*	*	*	*
*	*	*custos:e	*	*	*	*
1G	.	1d	.	.	.	.
.	.	.	.	.	2B-/	.
!	!	!LO:LB:g=original	!	!	!	!
=29-	=29-	=29-	=29-	=29-	=29-	=29-
1C	.	2e\	.	.	4c/	.
.	.	.	.	.	4d/	.
.	.	4c/	.	.	4e\	.
.	.	4d/	.	.	4f\	.
2r	.	4e\	.	.	2g\	.
.	.	4f\	.	.	.	.
2c\	de-	1g\	.	.	2f\	.
=30-	=30-	=30-	=30-	=30-	=30-	=30-
2B-\	-i	.	.	.	2d/	.
2A\	.	1f	de-	.	2c/	.
*	*	*	*	*	*custos:f	*
2B-\	.	.	.	.	1g	de-
2c\	.	2e\	.	.	.	.
!	!	!	!	!	!LO:LB:g=original	!
=31-	=31-	=31-	=31-	=31-	=31-	=31-
2.d\	.	1f	-i	.	4f\	.
.	.	.	.	.	4g\	.
.	.	.	.	.	4a\	.
4c\	.	.	.	.	4f\	.
2B-\	.	1r	.	.	4g\	.
.	.	.	.	.	4f\	.
2A\	.	.	.	.	1f\	.
=32-	=32-	=32-	=32-	=32-	=32-	=32-
1G	.	0r	.	.	.	.
.	.	.	.	.	2e\	-i
0F	.	.	.	.	2f\	qui
.	.	.	.	.	2f\	.
=33-	=33-	=33-	=33-	=33-	=33-	=33-
*	*	*lig	*	*	*lig	*
.	.	1f	qui	.	1c	tol-
1r	.	1c	.	.	1A	.
*	*	*Xlig	*	*	*Xlig	*
=34-	=34-	=34-	=34-	=34-	=34-	=34-
*custos:D	*	*	*	*	*	*
*	*	*lig	*	*	*	*
1F	qui	1A	.	.	1F	.
!LO:LB:g=original	!	!	!	!	!	!
*clefF4	*	*	*	*	*	*
2D/	tol-	1F	tol-	.	2B-/	.
1F\	-lis	.	.	.	1A/	.
*	*	*Xlig	*	*	*	*
=35-	=35-	=35-	=35-	=35-	=35-	=35-
*	*	*lig	*	*	*	*
.	.	1B-	-lis	.	.	.
*	*	*	*	*	*custos:A	*
2E/	.	.	.	.	2G/	.
!	!	!	!	!	!LO:PB:g=original	!
2.F/	.	1A	.	.	2A/	.
.	.	.	.	.	2F/	.
4E/	.	.	.	.	.	.
*	*	*Xlig	*	*	*	*
=36-	=36-	=36-	=36-	=36-	=36-	=36-
*	*	*lig	*	*	*	*
2.C/	.	1G	.	.	1G	.
4BB-/	.	.	.	.	.	.
*	*	*custos:f	*	*	*	*
2AA/	.	1A	.	.	2F/	-lis
2FF/	.	.	.	.	2A/	.
*	*	*Xlig	*	*	*	*
!	!	!LO:LB:g=original	!	!	!	!
=37-	=37-	=37-	=37-	=37-	=37-	=37-
*	*	*lig	*	*	*	*
1C	.	1G	.	.	1c	pec-
2FF/	.	1F	.	.	1c	-ca-
2F\	pec-	.	.	.	.	.
*	*	*Xlig	*	*	*	*
=38-	=38-	=38-	=38-	=38-	=38-	=38-
*	*	*	*	*	*lig	*
2D/	-ca-	0r	.	.	1d	-ta
2BB-/	-ta	.	.	.	.	.
1C	.	.	.	.	1e	.
*	*	*	*	*	*Xlig	*
=39-	=39-	=39-	=39-	=39-	=39-	=39-
2BB-/	.	0r	.	.	2d/	mun-
*custos:GG	*	*	*	*	*	*
2AA/	.	.	.	.	1c	-di
!LO:LB:g=original	!	!	!	!	!	!
1GG	.	.	.	.	.	.
.	.	.	.	.	2B-/	.
=40-	=40-	=40-	=40-	=40-	=40-	=40-
2AA/	.	1A	pec-	.	1c	.
2.A\	.	.	.	.	.	.
.	.	1c	-ca-	.	1r	.
4G\	.	.	.	.	.	.
4F\	.	.	.	.	.	.
4E/	.	.	.	.	.	.
=41-	=41-	=41-	=41-	=41-	=41-	=41-
2F\	.	1c	-ta	.	1r	.
2E/	.	.	.	.	.	.
*	*	*lig	*	*	*	*
1D	.	1d	mun-	.	1f	mi-
=42-	=42-	=42-	=42-	=42-	=42-	=42-
*	*	*	*	*	*custos:c	*
1C	.	1e	.	.	2e/	-ſe-
!	!	!	!	!	!LO:LB:g=original	!
.	.	.	.	.	2c/	.
*	*	*Xlig	*	*	*	*
*	*	*lig	*	*	*	*
1G	.	1d	-di	.	1d	-re-
=43-	=43-	=43-	=43-	=43-	=43-	=43-
2r	.	1B-	.	.	1G	-re
2G\	.	.	.	.	.	.
*	*	*Xlig	*	*	*	*
*custos:C	*	*	*	*	*	*
2A\	.	1c	.	.	2r	.
!LO:LB:g=original	!	!	!	!	!	!
!LO:CL:ed	!	!	!	!	!	!
*clefF3	*	*	*	*	*	*
1c\	.	.	.	.	2c/	No
=44-	=44-	=44-	=44-	=44-	=44-	=44-
.	.	0r	.	.	2d/	.
2B-\	.	.	.	.	1f	.
2c\	.	.	.	.	.	.
2C/	.	.	.	.	2e/	.
=45-	=45-	=45-	=45-	=45-	=45-	=45-
2D/	.	0r	.	.	4f\	.
.	.	.	.	.	4e\	.
1F	.	.	.	.	4d/	.
.	.	.	.	.	4c/	.
*	*	*	*	*	*custos:c	*
.	.	.	.	.	2B-/	.
!	!	!	!	!	!LO:LB:g=original	!
2E/	.	.	.	.	2.c/	.
=46-	=46-	=46-	=46-	=46-	=46-	=46-
0F	.	1f	mi-	.	.	.
.	.	.	.	.	4B-/	.
.	.	.	.	.	4A/	.
.	.	.	.	.	4G/	.
*	*	*lig	*	*	*	*
.	.	1f	-ſe-	.	2F/	.
.	.	.	.	.	2.A/	.
=47-	=47-	=47-	=47-	=47-	=47-	=47-
2r	.	1c	.	.	.	.
.	.	.	.	.	4F/	.
2C/	.	.	.	.	2G/	.
*	*	*Xlig	*	*	*	*
2D/	.	1A	-re-	.	1F	.
2.F/	.	.	.	.	.	.
=48-	=48-	=48-	=48-	=48-	=48-	=48-
.	.	1F	-re	.	2r	.
4E/	.	.	.	.	.	.
1D	.	.	.	.	1f	.
*	*	*lig	*	*	*	*
.	.	1B-	no	.	.	.
*custos:C	*	*	*	*	*	*
2BB-/	.	.	.	.	2f\	.
!LO:PB:g=original	!	!	!	!	!	!
*clefF4	*	*	*	*	*	*
=49-	=49-	=49-	=49-	=49-	=49-	=49-
2C/	.	1A	.	.	2e\	.
2D/	.	.	.	.	2f\	.
*	*	*Xlig	*	*	*	*
*	*	*lig	*	*	*	*
*	*	*	*	*	*custos:c	*
2GG/	.	1G	.	.	1d	.
1G\	.	.	.	.	.	.
!	!	!	!	!	!LO:LB:g=original	!
=50-	=50-	=50-	=50-	=50-	=50-	=50-
*	*	*custos:G	*	*	*	*
.	.	1A	.	.	2.c/	.
2F\	.	.	.	.	.	.
.	.	.	.	.	4d/	.
*	*	*Xlig	*	*	*	*
!	!	!LO:LB:g=original	!	!	!	!
2E/	.	2G/	.	.	2e\	.
2D/	.	1F/	.	.	2f\	.
=51-	=51-	=51-	=51-	=51-	=51-	=51-
1C	.	.	.	.	1g	.
.	.	2E/	.	.	.	.
1c	.	4F/	.	.	1c	.
.	.	4G/	.	.	.	.
.	.	4A/	.	.	.	.
.	.	4B-/	.	.	.	.
=52-	=52-	=52-	=52-	=52-	=52-	=52-
2B-\	.	2G/	.	.	2d/	.
2.A\	.	2.c/	.	.	2.e\	.
4G\	.	4B-/	.	.	4c/	.
4F/	.	4A/	.	.	2.f\	.
4E/	.	4G/	.	.	.	.
=53-	=53-	=53-	=53-	=53-	=53-	=53-
2D/	.	2A/	.	.	.	.
.	.	.	.	.	4d/	.
2BB-/	.	2B-/	.	.	2.g\	.
*custos:C	*	*	*	*	*	*
1D	.	1G	.	.	.	.
.	.	.	.	.	4f\	.
.	.	.	.	.	2.f\	.
!LO:LB:g=original	!	!	!	!	!	!
=54-	=54-	=54-	=54-	=54-	=54-	=54-
1C	.	1G	.	.	.	.
*	*	*	*	*	*custos:e	*
.	.	.	.	.	4e\	.
!	!	!	!	!	!LO:LB:g=original	!
.	.	.	.	.	2e\	.
!	!	!LO:N:vis=0	!	!	!	!
2FF/	.	0.F;;	.	.	2.f\	.
1BB-/	.	.	.	.	.	.
.	.	.	.	.	4e\	.
=55-	=55-	=55-	=55-	=55-	=55-	=55-
.	.	.	.	.	2d/	.
2BB-/	.	.	.	.	4c/	.
.	.	.	.	.	4B-/	.
*	*	*	*	*	*custos:g	*
!LO:N:vis=00	!	!	!	!	!LO:N:vis=00\	!
1FF;	.	.	.	.	1c;;	.
==	==	==	==	==	==	==
*-	*-	*-	*-	*-	*-	*-
!!!RDF**kern: < = below
!!!system-decoration: [(s1,s2,s3)]
!!!ENC: Anastazja Marusiak
!!!END: 2022-01-19
!!!ENC: Urszula Świątek
!!!END: 2022-01-25
!!!YEC: Copyright 2022 Narodowy Instytut Fryderyka Chopina (https://polishscores.org)
!!!YEM: License CC-BY-4.0 (https://creativecommons.org/licenses/by/4.0)
